icon-themes/sifr_svg/cmd/32/showtrackchanges.svg

<svg viewBox="0 0 32 32" xmlns="http://www.w3.org/2000/svg"><g fill="#555753"><path d="m8 7v3h3v-3zm0 15v3h2.720703c.420989-.413708.852853-.842402 1.279297-1.263672v-1.736328zm14.251953 0c-.989798.989063-2.017863 2.001994-3.021484 3h3.769531v-3z" opacity=".35"/><path d="m6 2c-1.108 0-2 .892-2 2v24c0 1.108.892 2 2 2h19c1.108 0 2-.892 2-2v-10.757812l-2 2v8.757812h-8.757812l-.121094.121094-.121094-.121094h-10v-24h13v7h5.757812l2.023438-2.0234375c-.879445-2.5093376-4.327944-6.9765625-7.78125-6.9765625zm6 5v3h6v-3zm16 3-1.792969 1.792969 2 2 1.792969-1.792969zm-20 2v3h11v-3zm16.792969 1.207031-10.792969 10.792969v2h2l10.792969-10.792969zm-16.792969 3.792969v3h7.765625c.408856-.408243.822536-.820319 1.234375-1.232422v-1.767578z"/></g></svg>

<svg xmlns="http://www.w3.org/2000/svg" viewBox="0 0 32 32">
  <path
     style="fill:#555753;opacity:0.35"
     d="M 8 7 L 8 10 L 11 10 L 11 7 L 8 7 z M 8 22 L 8 25 L 10.720703 25 C 11.141692 24.586292 11.573556 24.157598 12 23.736328 L 12 22 L 8 22 z M 22.251953 22 C 21.262155 22.989063 20.23409 24.001994 19.230469 25 L 23 25 L 23 22 L 22.251953 22 z "
     />
  <path
     style="fill:#555753"
     d="M 6 2 C 4.892 2 4 2.892 4 4 L 4 28 C 4 29.108 4.892 30 6 30 L 25 30 C 26.108 30 27 29.108 27 28 L 27 17.242188 L 25 19.242188 L 25 28 L 16.242188 28 L 16.121094 28.121094 L 16 28 L 6 28 L 6 4 L 19 4 L 19 11 L 24.757812 11 L 26.78125 8.9765625 C 25.901805 6.4672249 22.453306 2 19 2 L 6 2 z M 12 7 L 12 10 L 18 10 L 18 7 L 12 7 z M 28 10 L 26.207031 11.792969 L 28.207031 13.792969 L 30 12 L 28 10 z M 8 12 L 8 15 L 19 15 L 19 12 L 8 12 z M 24.792969 13.207031 L 14 24 L 14 26 L 16 26 L 26.792969 15.207031 L 24.792969 13.207031 z M 8 17 L 8 20 L 15.765625 20 C 16.174481 19.591757 16.588161 19.179681 17 18.767578 L 17 17 L 8 17 z "
     />
</svg>
